symbolic/64x64/apps/pyrenamer.svg

<svg xmlns="http://www.w3.org/2000/svg" width="64" height="64" version="1">
 <path style="fill:#2297fd" d="m 5,20 36,0 c 1.662,0 3,1.338 3,3 l 0,36 c 0,1.662 -1.338,3 -3,3 L 5,62 C 3.338,62 2,60.662 2,59 L 2,23 c 0,-1.662 1.338,-3 3,-3 z"/>
 <path style="opacity:0.2" d="m 26.623584,50.9996 -9.231969,0 L 15.934752,55 10.0001,55 l 8.480588,-24 7.038824,0 8.480588,24 -5.934652,0 -1.441484,-4.0004 z m -7.759606,-5 6.272044,0 -3.128322,-9.3738 z"/>
 <path style="fill:#ffffff" d="m 26.623584,50 -9.231969,0 -1.456863,4.0004 -5.934652,0 8.480588,-24 7.038824,0 8.480588,24 -5.934652,0 L 26.623964,50 Z m -7.759606,-5 6.272044,0 -3.128322,-9.3738 z"/>
 <path style="opacity:0.2;fill:#ffffff" d="M 5 20 C 3.338 20 2 21.338 2 23 L 2 24 C 2 22.338 3.338 21 5 21 L 41 21 C 42.662 21 44 22.338 44 24 L 44 23 C 44 21.338 42.662 20 41 20 L 5 20 z"/>
 <path style="fill:#f3af3f" d="m 23,2 36,0 c 1.662,0 3,1.338 3,3 l 0,36 c 0,1.662 -1.338,3 -3,3 l -36,0 c -1.662,0 -3,-1.338 -3,-3 L 20,5 c 0,-1.662 1.338,-3 3,-3 z"/>
 <path style="opacity:0.2" d="m 32,13 0,24 10.398438,0 c 3.232933,0 5.640609,-0.567165 7.224609,-1.703125 C 51.207047,34.160875 52,32.433941 52,30.119141 52,28.608101 51.630298,27.334415 50.892578,26.294922 50.154978,25.255389 49.114865,24.3858 47.769531,24 c 1.052307,-0.39648 1.85491,-0.845676 2.408203,-1.660156 0.553294,-0.825227 0.830079,-1.822128 0.830078,-2.990235 0,-2.218386 -0.760363,-3.830544 -2.279296,-4.83789 C 47.220516,13.504372 44.78025,13 41.40625,13 Z m 6,4 3.210938,0 c 0.914604,0 1.607713,0.215953 2.080078,0.648438 C 43.76338,18.070409 44,18.687789 44,19.5 44,20.322775 43.76338,20.945255 43.291016,21.367188 42.818589,21.78912 42.125479,22 41.210938,22 L 38,22 Z m 0,10 3.447266,0 c 1.189533,0 2.078287,0.250588 2.667968,0.751953 C 44.704915,28.24297 45,28.98427 45,29.976562 c 0,1.01271 -0.300551,1.770209 -0.900391,2.271485 C 43.509891,32.749323 42.62664,33 41.447266,33 L 38,33 Z"/>
 <path style="fill:#ffffff" d="m 32,12 0,24 10.398438,0 c 3.232933,0 5.640609,-0.567165 7.224609,-1.703125 C 51.207047,33.160875 52,31.433941 52,29.119141 52,27.608101 51.630298,26.334415 50.892578,25.294922 50.154978,24.255389 49.114865,23.3858 47.769531,23 c 1.052307,-0.39648 1.85491,-0.845676 2.408203,-1.660156 0.553294,-0.825227 0.830079,-1.822128 0.830078,-2.990235 0,-2.218386 -0.760363,-3.830544 -2.279296,-4.83789 C 47.220516,12.504372 44.78025,12 41.40625,12 Z m 6,4 3.210938,0 c 0.914604,0 1.607713,0.215953 2.080078,0.648438 C 43.76338,17.070409 44,17.687789 44,18.5 44,19.322775 43.76338,19.945255 43.291016,20.367188 42.818589,20.78912 42.125479,21 41.210938,21 L 38,21 Z m 0,10 3.447266,0 c 1.189533,0 2.078287,0.250588 2.667968,0.751953 C 44.704915,27.24297 45,27.98427 45,28.976562 c 0,1.01271 -0.300551,1.770209 -0.900391,2.271485 C 43.509891,31.749323 42.62664,32 41.447266,32 L 38,32 Z"/>
 <path style="opacity:0.2;fill:#ffffff" d="M 23 2 C 21.338 2 20 3.338 20 5 L 20 6 C 20 4.338 21.338 3 23 3 L 59 3 C 60.662 3 62 4.338 62 6 L 62 5 C 62 3.338 60.662 2 59 2 L 23 2 z"/>
 <path style="opacity:0.2" d="m 2,59 0,1 c 0,1.662 1.338,3 3,3 l 36,0 c 1.662,0 3,-1.338 3,-3 l 0,-1 c 0,1.662 -1.338,3 -3,3 L 5,62 C 3.338,62 2,60.662 2,59 Z"/>
 <path style="opacity:0.5" d="m 20,41 0,1 c 0,1.662 1.338,3 3,3 l 36,0 c 1.662,0 3,-1.338 3,-3 l 0,-1 c 0,1.662 -1.338,3 -3,3 l -36,0 c -1.662,0 -3,-1.338 -3,-3 z"/>
</svg>

<svg xmlns="http://www.w3.org/2000/svg" width="64" height="64" version="1"><path style="fill:#2297fd" d="M5 20h36c1.662 0 3 1.338 3 3v36c0 1.662-1.338 3-3 3H5c-1.662 0-3-1.338-3-3V23c0-1.662 1.338-3 3-3z"/><path style="opacity:.2" d="M26.624 51h-9.232l-1.457 4H10l8.48-24h7.04L34 55h-5.935l-1.441-4zm-7.76-5h6.272l-3.128-9.374z"/><path style="fill:#fff" d="M26.624 50h-9.232l-1.457 4H10l8.48-24h7.04L34 54h-5.935l-1.441-4zm-7.76-5h6.272l-3.128-9.374z"/><path style="opacity:.2;fill:#fff" d="M5 20c-1.662 0-3 1.338-3 3v1c0-1.662 1.338-3 3-3h36c1.662 0 3 1.338 3 3v-1c0-1.662-1.338-3-3-3H5z"/><path style="fill:#f3af3f" d="M23 2h36c1.662 0 3 1.338 3 3v36c0 1.662-1.338 3-3 3H23c-1.662 0-3-1.338-3-3V5c0-1.662 1.338-3 3-3z"/><path style="opacity:.2" d="M32 13v24h10.398c3.233 0 5.641-.567 7.225-1.703C51.207 34.16 52 32.434 52 30.119c0-1.51-.37-2.785-1.107-3.824-.738-1.04-1.778-1.91-3.123-2.295 1.052-.396 1.854-.846 2.408-1.66.553-.825.83-1.822.83-2.99 0-2.219-.76-3.83-2.28-4.838C47.222 13.504 44.78 13 41.407 13zm6 4h3.21c.916 0 1.609.216 2.081.648.472.422.709 1.04.709 1.852 0 .823-.237 1.445-.709 1.867-.472.422-1.166.633-2.08.633H38zm0 10h3.447c1.19 0 2.079.25 2.668.752.59.491.885 1.232.885 2.225 0 1.012-.3 1.77-.9 2.271-.59.501-1.473.752-2.653.752H38z"/><path style="fill:#fff" d="M32 12v24h10.398c3.233 0 5.641-.567 7.225-1.703C51.207 33.16 52 31.434 52 29.119c0-1.51-.37-2.785-1.107-3.824-.738-1.04-1.778-1.91-3.123-2.295 1.052-.396 1.854-.846 2.408-1.66.553-.825.83-1.822.83-2.99 0-2.219-.76-3.83-2.28-4.838C47.222 12.504 44.78 12 41.407 12zm6 4h3.21c.916 0 1.609.216 2.081.648.472.422.709 1.04.709 1.852 0 .823-.237 1.445-.709 1.867-.472.422-1.166.633-2.08.633H38zm0 10h3.447c1.19 0 2.079.25 2.668.752.59.491.885 1.232.885 2.225 0 1.012-.3 1.77-.9 2.271-.59.501-1.473.752-2.653.752H38z"/><path style="opacity:.2;fill:#fff" d="M23 2c-1.662 0-3 1.338-3 3v1c0-1.662 1.338-3 3-3h36c1.662 0 3 1.338 3 3V5c0-1.662-1.338-3-3-3H23z"/><path style="opacity:.2" d="M2 59v1c0 1.662 1.338 3 3 3h36c1.662 0 3-1.338 3-3v-1c0 1.662-1.338 3-3 3H5c-1.662 0-3-1.338-3-3z"/><path style="opacity:.5" d="M20 41v1c0 1.662 1.338 3 3 3h36c1.662 0 3-1.338 3-3v-1c0 1.662-1.338 3-3 3H23c-1.662 0-3-1.338-3-3z"/></svg>
